icons/clipboard-warning.svg

<svg xmlns="http://www.w3.org/2000/svg" width="24" height="24" viewBox="0 0 24 24">
  <path d="M16,1 C16.5128358,1 16.9355072,1.38604019 16.9932723,1.88337887 L17,2 L17,3 L19,3 C20.1045695,3 21,3.8954305 21,5 L21,21 C21,22.1045695 20.1045695,23 19,23 L5,23 C3.8954305,23 3,22.1045695 3,21 L3,5 C3,3.8954305 3.8954305,3 5,3 L7,3 L7,2 C7,1.48716416 7.38604019,1.06449284 7.88337887,1.00672773 L8,1 L16,1 Z M12,16 C11.4477153,16 11,16.4477153 11,17 C11,17.5522847 11.4477153,18 12,18 C12.5522847,18 13,17.5522847 13,17 C13,16.4477153 12.5522847,16 12,16 Z M12,10 C11.4477153,10 11,10.4477153 11,11 L11,11 L11,14 C11,14.5522847 11.4477153,15 12,15 C12.5522847,15 13,14.5522847 13,14 L13,14 L13,11 C13,10.4477153 12.5522847,10 12,10 Z M15,3 L9,3 L9,5 L15,5 L15,3 Z"/>
</svg>

<svg xmlns="http://www.w3.org/2000/svg" viewBox="0 0 24 24">
  <path d="M16 1a1 1 0 0 1 1 .88V3h2a2 2 0 0 1 2 2v16a2 2 0 0 1-2 2H5a2 2 0 0 1-2-2V5c0-1.1.9-2 2-2h2V2a1 1 0 0 1 .88-1H16zm-4 15a1 1 0 1 0 0 2 1 1 0 0 0 0-2zm0-6a1 1 0 0 0-1 1v3a1 1 0 0 0 2 0v-3a1 1 0 0 0-1-1zm3-7H9v2h6V3z"/>
</svg>
